images/network-image1.svg

<svg width="25" height="28" viewBox="0 0 25 28" fill="none" xmlns="http://www.w3.org/2000/svg">
<path fill-rule="evenodd" clip-rule="evenodd" d="M13.5501 2.23259C14.5379 1.02638 16.2329 0.100093 17.6831 0C17.9262 1.64899 17.2547 3.26406 16.3672 4.4058C15.4185 5.63236 13.7813 6.5807 12.1968 6.5315C11.9078 4.95207 12.649 3.32683 13.5501 2.23259ZM18.0165 6.53333C19.9466 6.53333 21.9903 7.57732 23.4446 9.37626C18.677 11.9705 19.4494 18.7283 24.2667 20.5378C23.6044 21.9951 23.2865 22.645 22.4325 23.936C21.241 25.7367 19.5631 27.9805 17.4803 27.9963C16.6241 28.0052 16.0624 27.7496 15.4568 27.474C14.7549 27.1545 13.9939 26.8082 12.647 26.8157C11.3076 26.8222 10.5345 27.1643 9.82292 27.4791C9.20166 27.7539 8.62736 28.008 7.7641 27.9998C5.68308 27.9823 4.09213 25.9574 2.90069 24.1567C-0.428589 19.1242 -0.780161 13.2159 1.27423 10.0734C2.73556 7.84182 5.04031 6.53684 7.20478 6.53684C8.35838 6.53684 9.28812 6.86569 10.1741 7.17908C10.9805 7.4643 11.7507 7.73672 12.6204 7.73672C13.4252 7.73672 14.0869 7.48802 14.8086 7.21674C15.6745 6.89129 16.6268 6.53333 18.0165 6.53333Z" fill="#495567"/>
</svg>

<svg width="25" height="28" fill="none" xmlns="http://www.w3.org/2000/svg"><path fill-rule="evenodd" clip-rule="evenodd" d="M13.55 2.233C14.538 1.026 16.233.1 17.683 0c.243 1.649-.428 3.264-1.316 4.406-.949 1.226-2.586 2.175-4.17 2.126-.29-1.58.452-3.205 1.353-4.3Zm4.466 4.3c1.93 0 3.974 1.044 5.429 2.843-4.768 2.595-3.996 9.352.822 11.162-.663 1.457-.98 2.107-1.834 3.398-1.192 1.8-2.87 4.044-4.953 4.06-.856.01-1.418-.246-2.023-.522-.702-.32-1.463-.666-2.81-.658-1.34.006-2.113.348-2.824.663-.621.275-1.196.529-2.059.52-2.08-.017-3.672-2.042-4.863-3.842C-.43 19.124-.78 13.216 1.274 10.073c1.462-2.231 3.766-3.536 5.93-3.536 1.154 0 2.084.329 2.97.642.806.285 1.577.558 2.446.558.805 0 1.467-.249 2.189-.52.866-.326 1.818-.684 3.208-.684Z" fill="#495567"/></svg>
